resources/assets/components/pages/AccountPage/Badges/StaffFave1Locked.svg

<?xml version="1.0" encoding="UTF-8"?>
<svg width="108px" height="108px" viewBox="0 0 108 108" version="1.1" xmlns="http://www.w3.org/2000/svg" xmlns:xlink="http://www.w3.org/1999/xlink">
    <!-- Generator: Sketch 55.1 (78136) - https://sketchapp.com -->
    <title>Badge / Inactive  / Staff Fave</title>
    <desc>Created with Sketch.</desc>
    <g id="Badge-/-Inactive--/-Staff-Fave" stroke="none" stroke-width="1" fill="none" fill-rule="evenodd">
        <g id="Staff-Fave-1" fill-rule="nonzero">
            <g id="Layer_1">
                <ellipse id="Oval" fill="#E7E7E7" cx="53.7511521" cy="53.6094675" rx="53.7511521" ry="53.6094675"></ellipse>
                <path d="M16.9584885,86.8364168 L92.163318,86.8364168 L86.2009217,92.1288626 L68.3306544,102.74453 C68.3306544,102.74453 57.4739171,104.607955 54.5604055,104.464997 C51.646894,104.322038 32.5811613,101.311966 32.5811613,101.311966 L16.9584885,86.8364168 Z" id="Path" fill="#F5F5F5"></path>
                <polygon id="Path" fill="#EAEAEA" points="45.5292166 93.1017751 25.7627281 86.8364168 57.9696221 86.8364168 57.9696221 89.9685996"></polygon>
                <path d="M34.2912442,51.4581394 C34.3481423,51.4581394 34.3942673,51.412136 34.3942673,51.3553879 C34.3942673,51.2986398 34.3481423,51.2526364 34.2912442,51.2526364 C34.2343462,51.2526364 34.1882212,51.2986398 34.1882212,51.3553879 C34.1882212,51.412136 34.2343462,51.4581394 34.2912442,51.4581394 Z" id="Path" fill="#983AC9"></path>
                <path d="M53.7511521,69.4431229 C53.0914645,69.4431229 52.556682,68.9097501 52.556682,68.2518014 C52.556682,67.5938528 53.0914645,67.0604799 53.7511521,67.0604799 C57.9377696,67.0604799 61.6684977,66.008146 64.8398157,63.9322682 C67.3910046,62.2624326 69.6037604,59.9234714 71.4163687,56.9828928 C73.5813456,53.4684944 74.6603502,49.9074359 75.1251982,48.0181986 L53.7511521,48.0181986 C53.0914645,48.0181986 52.556682,47.4848258 52.556682,46.8268771 C52.556682,46.1689284 53.0914645,45.6355554 53.7511521,45.6355554 L76.6003687,45.6355554 C76.9497897,45.6355554 77.2817736,45.7877805 77.5088583,46.0526509 C77.735943,46.3175212 77.8353547,46.6682821 77.7809032,47.0125247 C77.7450691,47.2398685 76.8581751,52.6653452 73.4947465,58.1613083 C71.4979908,61.422551 69.0403687,64.0265812 66.1905622,65.9048981 C62.6101382,68.2498159 58.4294931,69.4431229 53.7511521,69.4431229 Z" id="Path" fill="#FFFFFF"></path>
                <path d="M53.7511521,69.4431229 C49.0728111,69.4431229 44.8921659,68.2518014 41.3087558,65.8979487 C38.4589493,64.0236029 36.0013272,61.4195726 34.0045714,58.154359 C30.6411429,52.6583958 29.7552442,47.2339119 29.7184147,47.0055753 C29.6639632,46.6613328 29.763375,46.3105718 29.9904597,46.0457015 C30.2175444,45.7808312 30.5495283,45.628606 30.8989493,45.628606 L53.7511521,45.628606 C54.4108397,45.628606 54.9456221,46.161979 54.9456221,46.8199277 C54.9456221,47.4778764 54.4108397,48.0112492 53.7511521,48.0112492 L32.377106,48.0112492 C32.8409585,49.8975082 33.9209585,53.461545 36.0859355,56.9759435 C37.8985438,59.9195003 40.1112995,62.2584615 42.6624885,63.9253189 C45.8338065,66.0011966 49.5645346,67.0535306 53.7511521,67.0535306 C54.4108397,67.0535306 54.9456221,67.5869034 54.9456221,68.2448521 C54.9456221,68.9028008 54.4108397,69.4361736 53.7511521,69.4361736 L53.7511521,69.4431229 Z" id="Path" fill="#FFFFFF"></path>
                <path d="M55.5956129,74.1349441 C55.6206398,74.1154083 55.6499925,74.1021323 55.6812166,74.0962262 C68.0638894,71.842643 69.3788018,47.9695529 69.5064672,44.1553386 C69.5105257,44.0209593 69.4600006,43.8905825 69.3661929,43.7940281 C69.2723852,43.6974737 69.1433196,43.6430703 69.0085161,43.6430703 L38.493788,43.6430703 C38.3589846,43.6430703 38.2299189,43.6974737 38.1361112,43.7940281 C38.0423035,43.8905825 37.9917784,44.0209593 37.995837,44.1553386 C38.1274839,47.9695529 39.4384147,71.842643 51.8210876,74.0962262 C51.8465903,74.1012068 51.8709114,74.1109769 51.8927558,74.1250164 C52.6721475,74.2739316 54.0865991,74.4446877 55.5956129,74.1349441 Z" id="Path" fill="#FFFFFF"></path>
                <path d="M58.2353917,85.7473504 L55.5219539,74.3374688 C55.5061304,74.26266 55.534779,74.1854355 55.5956129,74.1389152 C54.0865991,74.4486588 52.6721475,74.2779027 51.8927558,74.1289875 C51.9642332,74.1740614 51.9993586,74.2592549 51.9803502,74.3414398 L49.2718894,85.7473504 C49.2506275,85.8370788 49.1702317,85.9003084 49.077788,85.9003084 L58.43447,85.9003084 C58.3401743,85.902751 58.2570538,85.8389169 58.2353917,85.7473504 Z" id="Path" fill="#FFFFFF"></path>
                <path d="M61.2862673,88.9986654 L61.2862673,88.9986654 C61.1763193,88.9986654 61.0871889,88.9097699 61.0871889,88.8001118 L61.0871889,87.0131295 C61.0866401,86.4003675 60.5887225,85.9037623 59.974341,85.903215 L47.5319447,85.903215 C46.9246528,85.9036782 46.4298695,86.3896469 46.4200922,86.9952597 C51.4398525,88.4030046 59.9574194,89.0006509 59.9574194,89.0006509 L46.2210138,89.0006509 C45.6064049,89.0006509 45.1081659,89.4975765 45.1081659,90.1105654 L45.1081659,90.3180539 C46.2737696,91.194668 55.2492166,92.5100855 60.8881106,93.1037607 L61.9063963,93.1037607 C62.1812661,93.1037607 62.4040922,92.881522 62.4040922,92.6073767 L62.4040922,90.1085799 C62.4040922,89.8133502 62.286166,89.5302842 62.0763889,89.3219916 C61.8666118,89.113699 61.5822743,88.997345 61.2862673,88.9986654 L61.2862673,88.9986654 Z" id="Path" fill="#FFFFFF"></path>
                <path d="M45.1031889,92.6053912 C45.1031889,92.8795365 45.326015,93.1017751 45.6008848,93.1017751 L54.5375115,93.1017751 C48.8986175,92.5061144 46.2687926,91.1926824 45.1031889,90.3160684 L45.1031889,92.6053912 Z" id="Path" fill="#FFFFFF"></path>
                <path d="M54.5375115,93.1017751 L60.8831336,93.1017751 C55.2442396,92.5061144 46.2687926,91.1926824 45.1031889,90.3160684 C46.2687926,91.1926824 48.8986175,92.5080999 54.5375115,93.1017751 Z" id="Path" fill="#FFFFFF"></path>
                <path d="M46.4161106,86.9932742 C46.4161106,86.9992308 46.4161106,87.0041946 46.4161106,87.0101512 L46.4161106,88.7971335 C46.4161106,88.9067916 46.3269802,88.995687 46.2170323,88.995687 L59.9534378,88.995687 C59.9534378,88.995687 51.435871,88.4010191 46.4161106,86.9932742 Z" id="Path" fill="#FFFFFF"></path>
            </g>
            <g id="Layer_2" fill="#DDDDDD">
                <path d="M53.7511521,5.6586745 C76.6176795,5.67583373 96.3102812,21.7490795 100.850166,44.1013371 C105.39005,66.4535946 93.5217061,88.903318 72.4645161,97.7945891 C47.9972532,108.102452 19.7843596,96.6762726 9.44925412,72.273504 C-0.885851361,47.8707354 10.5705254,19.732209 35.037788,9.42434583 C40.9580295,6.92622845 47.3228784,5.64547125 53.7511521,5.6586745 L53.7511521,5.6586745 Z M53.7511521,0 C24.0655853,0 0,24.0021499 0,53.6094675 C0,83.216785 24.0655853,107.218935 53.7511521,107.218935 C83.4367189,107.218935 107.502304,83.216785 107.502304,53.6094675 C107.502304,24.0021499 83.4367189,0 53.7511521,0 Z" id="Shape"></path>
            </g>
        </g>
    </g>
</svg>

<svg id="Layer_1" data-name="Layer 1" xmlns="http://www.w3.org/2000/svg" viewBox="0 0 108 108"><defs><style>.cls-1{fill:#e7e7e7;}.cls-2{fill:#f5f5f5;}.cls-3{fill:#eaeaea;}.cls-4{fill:#983ac9;}.cls-5{fill:#fff;}.cls-6{fill:#ddd;}</style></defs><title>Staff Fave 1 Locked</title><g id="Staff-Fave-1"><ellipse id="Oval" class="cls-1" cx="53.75" cy="53.61" rx="53.75" ry="53.61"/><path id="Path" class="cls-2" d="M17,86.84h75.2l-6,5.29L68.33,102.74s-10.86,1.87-13.77,1.72-22-3.15-22-3.15Z"/><polygon class="cls-3" points="45.53 93.1 25.76 86.84 57.97 86.84 57.97 89.97 45.53 93.1"/><path class="cls-4" d="M34.29,51.46a.1.1,0,0,0,.1-.1.1.1,0,1,0-.2,0A.1.1,0,0,0,34.29,51.46Z"/><path class="cls-5" d="M53.75,69.44a1.19,1.19,0,0,1,0-2.38,19.84,19.84,0,0,0,11.09-3.13,22,22,0,0,0,6.58-7,32.56,32.56,0,0,0,3.71-9H53.75a1.19,1.19,0,1,1,0-2.38H76.6a1.21,1.21,0,0,1,.91.41,1.17,1.17,0,0,1,.27,1,33.34,33.34,0,0,1-4.29,11.15,24.17,24.17,0,0,1-7.3,7.74A22.24,22.24,0,0,1,53.75,69.44Z"/><path class="cls-5" d="M53.75,69.44A22.24,22.24,0,0,1,41.31,65.9,24.34,24.34,0,0,1,34,58.15,33.78,33.78,0,0,1,29.72,47a1.15,1.15,0,0,1,.27-1,1.19,1.19,0,0,1,.91-.42H53.75a1.19,1.19,0,1,1,0,2.38H32.38a32.09,32.09,0,0,0,3.71,9,21.86,21.86,0,0,0,6.57,7,19.91,19.91,0,0,0,11.09,3.12,1.2,1.2,0,1,1,0,2.39Z"/><path class="cls-5" d="M55.6,74.13a.19.19,0,0,1,.08,0C68.06,71.84,69.38,48,69.51,44.16a.5.5,0,0,0-.5-.52H38.49a.51.51,0,0,0-.35.15.47.47,0,0,0-.14.37C38.13,48,39.44,71.84,51.82,74.1a.09.09,0,0,1,.07,0A10.06,10.06,0,0,0,55.6,74.13Z"/><path class="cls-5" d="M58.24,85.75,55.52,74.34a.2.2,0,0,1,.08-.2,9.81,9.81,0,0,1-3.71,0,.2.2,0,0,1,.09.21L49.27,85.75a.19.19,0,0,1-.19.15h9.35A.19.19,0,0,1,58.24,85.75Z"/><path class="cls-5" d="M61.29,89h0a.2.2,0,0,1-.2-.2V87A1.12,1.12,0,0,0,60,85.9H47.53A1.11,1.11,0,0,0,46.42,87c5,1.4,13.54,2,13.54,2H46.22a1.11,1.11,0,0,0-1.11,1.11v.21c1.16.87,10.14,2.19,15.78,2.78h1a.49.49,0,0,0,.49-.49v-2.5a1.1,1.1,0,0,0-.32-.79,1.12,1.12,0,0,0-.79-.32Z"/><path class="cls-5" d="M45.1,92.61a.5.5,0,0,0,.5.49h8.94c-5.64-.59-8.27-1.91-9.44-2.78Z"/><path class="cls-5" d="M54.54,93.1h6.34c-5.64-.59-14.61-1.91-15.78-2.78C46.27,91.19,48.9,92.51,54.54,93.1Z"/><path class="cls-5" d="M46.42,87V88.8a.2.2,0,0,1-.2.2H60S51.44,88.4,46.42,87Z"/><path id="Shape" class="cls-6" d="M53.75,5.66A48,48,0,1,1,35,9.42,48.06,48.06,0,0,1,53.75,5.66Zm0-5.66A53.61,53.61,0,1,0,107.5,53.61,53.68,53.68,0,0,0,53.75,0Z"/></g></svg>
